X: 4137
T: CAPTAIN McKENZIE
R: Strathspey.
%R: strathspey
B: James Kerr "Merry Melodies" v.4 p.17 #137
Z: 2016 John Chambers <jc:trillian.mit.edu>
M: C
L: 1/8
K: Am
ue |\
A<A c>e d>A c<e | G<G B>A G3 B |\
A<A c>e d>A c<e | a>eg>B B<A A ::\
e |\
c>B A>e a>eg>B | G<G B>A G3 B |\
c>BA>e a>eg>e | a>eg>B B<A A :|

%%sep 1 1 500
%%sep 1 1 500

